X: 0952
T: RODERICK DHU'S MARCH
B: Oliver Ditson "The Boston Collection of Instrumental Music" 1910 p.95 #2
F: http://conquest.imslp.info/files/imglnks/usimg/8/8f/IMSLP175643-PMLP309456-bostoncollection00bost_bw.pdf
N: Also known as "Hail to the Chief".
%: 2012 John Chambers <jc:trillian.mit.edu>
M: 4/4
L: 1/8
K: D
|:\
A2B>c d2c>B | A>BA>F E2D2 | A2d>e f2e>d | e>de>f edcB |\
A2B>c d2c>B | A>BA>F E2D2 | A2d>c B<dA<F | A2d>e d2z2 :|
|:\
f2f>f f2g>f | e>de>f e2A2 | f2f>f f2e>d | e2a>a agfe |\
d2d>c B>cd>B | A2d>e f2d2 | B2d>B A>BA>F | A2d>e d2z2 :|

%%sep 1 1 500
%%sep 1 1 500
